X: 17
T: Tanxia zhentou duanxia yige ren
L: 1/8
M: 2/4
K: E
e gf2 [I:setbarnb 1]| 
f e c B | 
e2f e | 
F4 | 
e gf2 | 
f e c B | 
e e f e | 
B4 |]

@@@ Tune index: 8891
